X:491
T:Back o' Bennachie
C:Joe Buchanan's Scottish Tome - Page 172.3
I:172 3
Z:Carl Allison
R:Polka
L:1/8
M:4/4
K:D
d2 | "D"A2 AB d2 de | "D"f2 f2 f2 (ed) | "D"f2 f2 f2 (ed) | "Em"e2 e2 "A7"fedB |
"D"A2 AB d2 de | "D"f2 f2 f2 (ed) | "A7"a2 A2 A2 Bc | "D"d4 "D"(d2>B2) |
"D"A2 F2 F2>A2 | "A7"G2 E2 E2>G2 | "D"F2 D2 F2 A2 | "Bm"d2 (df) "A7"edcB |
"D"A2 F2 F2>A2 | "Em"G2 E2 E2>G2 | "D"F2 D2 "A7"F2 A2 | "D"d4 d2 :|
